Sweet-Rainbow/icons/java.svg

<?xml version="1.0" encoding="UTF-8" standalone="no"?>
<!-- Generator: Gravit.io -->

<svg
   xmlns:dc="http://purl.org/dc/elements/1.1/"
   xmlns:cc="http://creativecommons.org/ns#"
   xmlns:rdf="http://www.w3.org/1999/02/22-rdf-syntax-ns#"
   xmlns:svg="http://www.w3.org/2000/svg"
   xmlns="http://www.w3.org/2000/svg"
   xmlns:sodipodi="http://sodipodi.sourceforge.net/DTD/sodipodi-0.dtd"
   xmlns:inkscape="http://www.inkscape.org/namespaces/inkscape"
   style="isolation:isolate"
   viewBox="0 0 36 36"
   width="48"
   height="48"
   version="1.1"
   id="svg9"
   sodipodi:docname="java.svg"
   inkscape:version="0.92.4 (5da689c313, 2019-01-14)">
  <metadata
     id="metadata15">
    <rdf:RDF>
      <cc:Work
         rdf:about="">
        <dc:format>image/svg+xml</dc:format>
        <dc:type
           rdf:resource="http://purl.org/dc/dcmitype/StillImage" />
        <dc:title></dc:title>
      </cc:Work>
    </rdf:RDF>
  </metadata>
  <defs
     id="defs13" />
  <sodipodi:namedview
     pagecolor="#ffffff"
     bordercolor="#666666"
     borderopacity="1"
     objecttolerance="10"
     gridtolerance="10"
     guidetolerance="10"
     inkscape:pageopacity="0"
     inkscape:pageshadow="2"
     inkscape:window-width="640"
     inkscape:window-height="480"
     id="namedview11"
     showgrid="false"
     inkscape:zoom="29.365243"
     inkscape:cx="25.325443"
     inkscape:cy="32"
     inkscape:current-layer="svg9"
     units="px" />
  <linearGradient
     id="_lgradient_3"
     x1="0"
     y1="0.5"
     x2="1"
     y2="0.5"
     gradientTransform="matrix(44,0,0,44,2,2)"
     gradientUnits="userSpaceOnUse">
    <stop
       offset="0%"
       stop-opacity="1"
       style="stop-color:rgb(255,153,102)"
       id="stop2" />
    <stop
       offset="98.26086956521739%"
       stop-opacity="1"
       style="stop-color:rgb(255,94,98)"
       id="stop4" />
  </linearGradient>
  <g
     id="g826"
     transform="matrix(0.81818182,0,0,0.81818182,-1.6362545,-1.6363637)">
    <path
       id="path7"
       d="m 41.999,25.34 v 0 c 0.083,-1.098 1.046,-1.925 2.148,-1.845 v 0 c 1.102,0.08 1.93,1.041 1.847,2.145 v 0 C 45.584,31.17 43.091,36.35 39.016,40.13 34.941,43.9 29.584,46 24.027,46 18.19,46 12.583,43.68 8.448,39.56 4.323,35.43 2,29.83 2,24 2,18.17 4.323,12.57 8.448,8.44 12.583,4.32 18.19,2 24.027,2 v 0 c 1.105,0 2.003,0.896 2.003,2 v 0 c 0,1.104 -0.898,2 -2.003,2 V 6 C 19.251,6 14.666,7.9 11.281,11.27 7.907,14.65 6.005,19.23 6.005,24 c 0,4.77 1.902,9.35 5.276,12.73 3.385,3.37 7.97,5.27 12.746,5.27 4.546,0 8.931,-1.71 12.265,-4.8 3.334,-3.09 5.367,-7.33 5.707,-11.86 z M 32.408,8.06 v 0 C 31.429,7.547 31.053,6.337 31.566,5.36 v 0 C 32.08,4.383 33.292,4.007 34.27,4.52 v 0 c 4.165,2.19 7.529,5.66 9.582,9.89 v 0 c 0.486,0.993 0.073,2.192 -0.922,2.675 v 0 c -0.994,0.483 -2.197,0.068 -2.683,-0.925 v 0 C 38.565,12.69 35.822,9.86 32.408,8.06 Z M 20.326,30.654 c 0,0 -1.07,0.622 0.762,0.832 2.218,0.253 3.352,0.217 5.797,-0.245 0,0 0.644,0.403 1.542,0.752 -5.482,2.348 -12.407,-0.136 -8.102,-1.339 z m -0.671,-3.066 c 0,0 -1.199,0.889 0.633,1.078 2.371,0.245 4.242,0.265 7.482,-0.359 0,0 0.447,0.454 1.151,0.703 -6.627,1.938 -14.007,0.152 -9.266,-1.422 z m 5.647,-5.2 c 1.351,1.555 -0.355,2.954 -0.355,2.954 0,0 3.43,-1.77 1.855,-3.988 -1.471,-2.067 -2.599,-3.094 3.507,-6.635 0,0 -9.585,2.393 -5.007,7.669 z m 7.25,10.533 c 0,0 0.791,0.653 -0.872,1.157 -3.164,0.959 -13.169,1.248 -15.948,0.039 -0.998,-0.435 0.875,-1.038 1.464,-1.165 0.614,-0.133 0.965,-0.109 0.965,-0.109 -1.111,-0.782 -7.181,1.537 -3.083,2.202 11.176,1.811 20.372,-0.816 17.473,-2.124 z M 20.84,24.412 c 0,0 -5.089,1.209 -1.802,1.648 1.388,0.186 4.154,0.143 6.732,-0.073 2.106,-0.177 4.22,-0.555 4.22,-0.555 0,0 -0.742,0.319 -1.279,0.685 -5.169,1.36 -15.152,0.727 -12.277,-0.663 2.429,-1.176 4.406,-1.042 4.406,-1.042 z m 9.129,5.102 c 5.254,-2.729 2.824,-5.352 1.129,-4.999 -0.415,0.087 -0.601,0.161 -0.601,0.161 0,0 0.155,-0.242 0.449,-0.346 3.354,-1.178 5.933,3.478 -1.082,5.322 0,0 0.081,-0.073 0.105,-0.138 z M 26.802,9 c 0,0 2.909,2.91 -2.76,7.385 -4.545,3.59 -1.036,5.637 -0.001,7.976 -2.654,-2.394 -4.6,-4.502 -3.295,-6.463 1.917,-2.879 7.23,-4.275 6.056,-8.898 z m -5.446,27.912 c 5.042,0.323 12.786,-0.179 12.97,-2.565 0,0 -0.353,0.904 -4.167,1.622 -4.304,0.81 -9.613,0.716 -12.761,0.196 0,0 0.645,0.534 3.958,0.747 z"
       style="fill:url(#_lgradient_3);fill-rule:evenodd"
       inkscape:connector-curvature="0" />
  </g>
</svg>

<?xml version="1.0" encoding="UTF-8" standalone="no"?><!-- Generator: Gravit.io --><svg xmlns="http://www.w3.org/2000/svg" xmlns:xlink="http://www.w3.org/1999/xlink" style="isolation:isolate" viewBox="0 0 48 48" width="48pt" height="48pt"><linearGradient id="_lgradient_3" x1="0" y1="0.5" x2="1" y2="0.5" gradientTransform="matrix(44,0,0,44,2,2)" gradientUnits="userSpaceOnUse"><stop offset="0%" stop-opacity="1" style="stop-color:rgb(255,153,102)"/><stop offset="98.26086956521739%" stop-opacity="1" style="stop-color:rgb(255,94,98)"/></linearGradient><path d=" M 41.999 25.34 L 41.999 25.34 C 42.082 24.242 43.045 23.415 44.147 23.495 L 44.147 23.495 C 45.249 23.575 46.077 24.536 45.994 25.64 L 45.994 25.64 C 45.584 31.17 43.091 36.35 39.016 40.13 C 34.941 43.9 29.584 46 24.027 46 C 18.19 46 12.583 43.68 8.448 39.56 C 4.323 35.43 2 29.83 2 24 C 2 18.17 4.323 12.57 8.448 8.44 C 12.583 4.32 18.19 2 24.027 2 L 24.027 2 C 25.132 2 26.03 2.896 26.03 4 L 26.03 4 C 26.03 5.104 25.132 6 24.027 6 L 24.027 6 C 19.251 6 14.666 7.9 11.281 11.27 C 7.907 14.65 6.005 19.23 6.005 24 C 6.005 28.77 7.907 33.35 11.281 36.73 C 14.666 40.1 19.251 42 24.027 42 C 28.573 42 32.958 40.29 36.292 37.2 C 39.626 34.11 41.659 29.87 41.999 25.34 L 41.999 25.34 L 41.999 25.34 L 41.999 25.34 L 41.999 25.34 L 41.999 25.34 L 41.999 25.34 L 41.999 25.34 L 41.999 25.34 Z  M 32.408 8.06 L 32.408 8.06 C 31.429 7.547 31.053 6.337 31.566 5.36 L 31.566 5.36 C 32.08 4.383 33.292 4.007 34.27 4.52 L 34.27 4.52 C 38.435 6.71 41.799 10.18 43.852 14.41 L 43.852 14.41 C 44.338 15.403 43.925 16.602 42.93 17.085 L 42.93 17.085 C 41.936 17.568 40.733 17.153 40.247 16.16 L 40.247 16.16 C 38.565 12.69 35.822 9.86 32.408 8.06 L 32.408 8.06 L 32.408 8.06 L 32.408 8.06 L 32.408 8.06 L 32.408 8.06 L 32.408 8.06 L 32.408 8.06 L 32.408 8.06 Z  M 20.326 30.654 C 20.326 30.654 19.256 31.276 21.088 31.486 C 23.306 31.739 24.44 31.703 26.885 31.241 C 26.885 31.241 27.529 31.644 28.427 31.993 C 22.945 34.341 16.02 31.857 20.325 30.654 L 20.326 30.654 L 20.326 30.654 L 20.326 30.654 L 20.326 30.654 L 20.326 30.654 L 20.326 30.654 L 20.326 30.654 L 20.326 30.654 Z  M 19.655 27.588 C 19.655 27.588 18.456 28.477 20.288 28.666 C 22.659 28.911 24.53 28.931 27.77 28.307 C 27.77 28.307 28.217 28.761 28.921 29.01 C 22.294 30.948 14.914 29.162 19.655 27.588 L 19.655 27.588 L 19.655 27.588 L 19.655 27.588 L 19.655 27.588 L 19.655 27.588 L 19.655 27.588 L 19.655 27.588 Z  M 25.302 22.388 C 26.653 23.943 24.947 25.342 24.947 25.342 C 24.947 25.342 28.377 23.572 26.802 21.354 C 25.331 19.287 24.203 18.26 30.309 14.719 C 30.309 14.719 20.724 17.112 25.302 22.388 L 25.302 22.388 L 25.302 22.388 L 25.302 22.388 L 25.302 22.388 L 25.302 22.388 L 25.302 22.388 Z  M 32.552 32.921 C 32.552 32.921 33.343 33.574 31.68 34.078 C 28.516 35.037 18.511 35.326 15.732 34.117 C 14.734 33.682 16.607 33.079 17.196 32.952 C 17.81 32.819 18.161 32.843 18.161 32.843 C 17.05 32.061 10.98 34.38 15.078 35.045 C 26.254 36.856 35.45 34.229 32.551 32.921 L 32.552 32.921 L 32.552 32.921 L 32.552 32.921 L 32.552 32.921 L 32.552 32.921 Z  M 20.84 24.412 C 20.84 24.412 15.751 25.621 19.038 26.06 C 20.426 26.246 23.192 26.203 25.77 25.987 C 27.876 25.81 29.99 25.432 29.99 25.432 C 29.99 25.432 29.248 25.751 28.711 26.117 C 23.542 27.477 13.559 26.844 16.434 25.454 C 18.863 24.278 20.84 24.412 20.84 24.412 L 20.84 24.412 L 20.84 24.412 L 20.84 24.412 L 20.84 24.412 Z  M 29.969 29.514 C 35.223 26.785 32.793 24.162 31.098 24.515 C 30.683 24.602 30.497 24.676 30.497 24.676 C 30.497 24.676 30.652 24.434 30.946 24.33 C 34.3 23.152 36.879 27.808 29.864 29.652 C 29.864 29.652 29.945 29.579 29.969 29.514 L 29.969 29.514 L 29.969 29.514 L 29.969 29.514 Z  M 26.802 9 C 26.802 9 29.711 11.91 24.042 16.385 C 19.497 19.975 23.006 22.022 24.041 24.361 C 21.387 21.967 19.441 19.859 20.746 17.898 C 22.663 15.019 27.976 13.623 26.802 9 L 26.802 9 L 26.802 9 Z  M 21.356 36.912 C 26.398 37.235 34.142 36.733 34.326 34.347 C 34.326 34.347 33.973 35.251 30.159 35.969 C 25.855 36.779 20.546 36.685 17.398 36.165 C 17.398 36.165 18.043 36.699 21.356 36.912 L 21.356 36.912 Z " fill-rule="evenodd" fill="url(#_lgradient_3)"/></svg>
